app/img/icomoon/vk.svg

<svg width="20" height="12" viewBox="0 0 20 12" fill="none" xmlns="http://www.w3.org/2000/svg">
<path d="M17.2005 7.6C18.7505 9.04 19.0705 9.73 19.1205 9.82C19.7605 10.88 18.4205 10.96 18.4205 10.96L15.8405 11C15.8405 11 15.2805 11.11 14.5605 10.61C13.5905 9.95 12.6605 8.22 11.9705 8.45C11.2605 8.68 11.2805 10.23 11.2805 10.23C11.2805 10.23 11.2805 10.45 11.1205 10.62C10.9405 10.81 10.5905 10.74 10.5905 10.74H9.44049C9.44049 10.74 6.89049 11 4.66049 8.67C2.21049 6.13 0.0504879 1.13 0.0504879 1.13C0.0504879 1.13 -0.06951 0.83 0.06049 0.66C0.21049 0.5 0.63049 0.5 0.63049 0.5H3.39048C3.39048 0.5 3.66049 0.5 3.83049 0.66C3.98049 0.77 4.07049 1 4.07049 1C4.07049 1 4.51049 2.11 5.11049 3.13C6.26049 5.12 6.79049 5.55 7.16049 5.34C7.76049 5.03 7.59048 2.53 7.59048 2.53C7.59048 2.53 7.60049 1.62 7.30049 1.22C7.07049 0.91 6.63049 0.81 6.44049 0.79C6.28049 0.77 6.5405 0.41 6.8705 0.24C7.3705 -2.23517e-07 8.24048 0 9.28048 0C10.0905 0 10.3205 0.0600001 10.6305 0.13C11.5905 0.36 11.2605 1.25 11.2605 3.37C11.2605 4.06 11.1605 5 11.6305 5.33C11.8405 5.47 12.3605 5.35 13.6605 3.16C14.2605 2.12 14.7205 0.89 14.7205 0.89C14.7205 0.89 14.8205 0.68 14.9705 0.58C15.1305 0.5 15.3505 0.5 15.3505 0.5H18.2505C18.2505 0.5 19.1305 0.4 19.2705 0.79C19.4205 1.2 18.9405 2.17 17.7505 3.74C15.8105 6.34 15.5905 6.1 17.2005 7.6Z" fill="white"/>
</svg>

<svg width="20" height="12" fill="none" xmlns="http://www.w3.org/2000/svg"><path d="M17.2 7.6c1.55 1.44 1.87 2.13 1.92 2.22.64 1.06-.7 1.14-.7 1.14l-2.58.04s-.56.11-1.28-.39c-.97-.66-1.9-2.39-2.59-2.16-.71.23-.69 1.78-.69 1.78s0 .22-.16.39c-.18.19-.53.12-.53.12H9.44S6.89 11 4.66 8.67C2.21 6.13.05 1.13.05 1.13S-.07.83.06.66C.21.5.63.5.63.5h2.76s.27 0 .44.16c.15.11.24.34.24.34s.44 1.11 1.04 2.13c1.15 1.99 1.68 2.42 2.05 2.21.6-.31.43-2.81.43-2.81s.01-.91-.29-1.31C7.07.91 6.63.81 6.44.79c-.16-.02.1-.38.43-.55C7.37 0 8.24 0 9.28 0c.81 0 1.04.06 1.35.13.96.23.63 1.12.63 3.24 0 .69-.1 1.63.37 1.96.21.14.73.02 2.03-2.17.6-1.04 1.06-2.27 1.06-2.27s.1-.21.25-.31c.16-.08.38-.08.38-.08h2.9s.88-.1 1.02.29c.15.41-.33 1.38-1.52 2.95-1.94 2.6-2.16 2.36-.55 3.86z" fill="#fff"/></svg>
